build/flags/Turkmenistan.svg

<svg xmlns="http://www.w3.org/2000/svg" fill="none" viewBox="0 0 28 28" focusable="false"><mask id="Turkmenistan_svg__g" width="4" height="2.667" x="4" y="9.333" maskUnits="userSpaceOnUse"><g fill-rule="evenodd" filter="url(#Turkmenistan_svg__a)"><path fill="#FBAF29" d="M6 12C7.10457 12 8 11.4031 8 10.6667C8 9.93033 7.10457 9.33337 6 9.33337C4.89543 9.33337 4 9.93033 4 10.6667C4 11.4031 4.89543 12 6 12Z"/><path stroke="#969696" stroke-opacity="0" stroke-width="0" d="M8 10.6667C8 9.93033 7.10457 9.33337 6 9.33337C4.89543 9.33337 4 9.93033 4 10.6667C4 11.4031 4.89543 12 6 12C7.10457 12 8 11.4031 8 10.6667Z"/></g></mask><mask id="Turkmenistan_svg__f" width="4" height="1.333" x="4" y="17.333" maskUnits="userSpaceOnUse"><g fill-rule="evenodd" filter="url(#Turkmenistan_svg__a)"><path fill="#28AE67" d="M6 18.6667C7.10457 18.6667 8 18.3682 8 18C8 17.6319 7.10457 17.3334 6 17.3334C4.89543 17.3334 4 17.6319 4 18C4 18.3682 4.89543 18.6667 6 18.6667Z"/><path stroke="#969696" stroke-opacity="0" stroke-width="0" d="M8 18C8 17.6319 7.10457 17.3334 6 17.3334C4.89543 17.3334 4 17.6319 4 18C4 18.3682 4.89543 18.6667 6 18.6667C7.10457 18.6667 8 18.3682 8 18Z"/></g></mask><mask id="Turkmenistan_svg__e" width="4" height="2.667" x="4" y="13.333" maskUnits="userSpaceOnUse"><g fill-rule="evenodd" filter="url(#Turkmenistan_svg__a)"><path fill="#28AE67" d="M6 16C7.10457 16 8 15.4031 8 14.6667C8 13.9303 7.10457 13.3334 6 13.3334C4.89543 13.3334 4 13.9303 4 14.6667C4 15.4031 4.89543 16 6 16Z"/><path stroke="#969696" stroke-opacity="0" stroke-width="0" d="M8 14.6667C8 13.9303 7.10457 13.3334 6 13.3334C4.89543 13.3334 4 13.9303 4 14.6667C4 15.4031 4.89543 16 6 16C7.10457 16 8 15.4031 8 14.6667Z"/></g></mask><mask id="Turkmenistan_svg__d" width="4" height="2.667" x="4" y="20" maskUnits="userSpaceOnUse"><g fill-rule="evenodd" filter="url(#Turkmenistan_svg__a)"><path fill="#FFF" d="M6 22.6667C7.10457 22.6667 8 22.0697 8 21.3333C8 20.597 7.10457 20 6 20C4.89543 20 4 20.597 4 21.3333C4 22.0697 4.89543 22.6667 6 22.6667Z"/><path stroke="#FFF" stroke-opacity="0" stroke-width="0" d="M8 21.3333C8 20.597 7.10457 20 6 20C4.89543 20 4 20.597 4 21.3333C4 22.0697 4.89543 22.6667 6 22.6667C7.10457 22.6667 8 22.0697 8 21.3333Z"/></g></mask><mask id="Turkmenistan_svg__c" width="4" height="2.667" x="4" y="5.333" maskUnits="userSpaceOnUse"><g fill-rule="evenodd" filter="url(#Turkmenistan_svg__a)"><path fill="#FFF" d="M6 8.00004C7.10457 8.00004 8 7.40309 8 6.66671C8 5.93033 7.10457 5.33337 6 5.33337C4.89543 5.33337 4 5.93033 4 6.66671C4 7.40309 4.89543 8.00004 6 8.00004Z"/><path stroke="#FFF" stroke-opacity="0" stroke-width="0" d="M8 6.66671C8 5.93033 7.10457 5.33337 6 5.33337C4.89543 5.33337 4 5.93033 4 6.66671C4 7.40309 4.89543 8.00004 6 8.00004C7.10457 8.00004 8 7.40309 8 6.66671Z"/></g></mask><defs><filter id="Turkmenistan_svg__a"><feColorMatrix values="0 0 0 0 1 0 0 0 0 1 0 0 0 0 1 0 0 0 1 0"/></filter></defs><mask id="Turkmenistan_svg__b" width="28" height="20" x="0" y="4" maskUnits="userSpaceOnUse"><g filter="url(#Turkmenistan_svg__a)"><rect width="28" height="20" y="4" fill="#FFF" rx="3"/><rect width="28" height="20" y="4" stroke="#969696" stroke-opacity="0" stroke-width="0" rx="3"/></g></mask><path fill="none" d="M0 0H28V28H0z"/><rect width="28" height="20" y="4" fill="#FFF" rx="3"/><rect width="28" height="20" y="4" rx="3"/><g mask="url(#Turkmenistan_svg__b)"><path fill="#30C375" fill-rule="evenodd" d="M0 24L28 24L28 4L0 4L0 24Z"/><path d="M28 24L28 4L0 4L0 24L28 24Z"/><path fill="#DE414F" d="M4 4H8V24H4z"/><path d="M4 4H8V24H4z"/><path fill="#FFF" fill-rule="evenodd" d="M6 8.00004C7.10457 8.00004 8 7.40309 8 6.66671C8 5.93033 7.10457 5.33337 6 5.33337C4.89543 5.33337 4 5.93033 4 6.66671C4 7.40309 4.89543 8.00004 6 8.00004Z"/><path d="M8 6.66671C8 5.93033 7.10457 5.33337 6 5.33337C4.89543 5.33337 4 5.93033 4 6.66671C4 7.40309 4.89543 8.00004 6 8.00004C7.10457 8.00004 8 7.40309 8 6.66671Z"/><g mask="url(#Turkmenistan_svg__c)"><path fill="#DD404F" fill-rule="evenodd" d="M5.99998 7.33333C6.36817 7.33333 6.66665 7.03486 6.66665 6.66667C6.66665 6.29848 6.36817 6 5.99998 6C5.63179 6 5.33331 6.29848 5.33331 6.66667C5.33331 7.03486 5.63179 7.33333 5.99998 7.33333Z"/><path d="M6.66665 6.66667C6.66665 6.29848 6.36817 6 5.99998 6C5.63179 6 5.33331 6.29848 5.33331 6.66667C5.33331 7.03486 5.63179 7.33333 5.99998 7.33333C6.36817 7.33333 6.66665 7.03486 6.66665 6.66667Z"/><path fill="#FBAF29" d="M4 5.333H6V6.666H4z"/><path d="M4 5.333H6V6.666H4z"/><path fill="#FBAF29" d="M6 6.667H8V8H6z"/><path d="M6 6.667H8V8H6z"/></g><path fill="#FFF" fill-rule="evenodd" d="M6 22.6667C7.10457 22.6667 8 22.0697 8 21.3333C8 20.597 7.10457 20 6 20C4.89543 20 4 20.597 4 21.3333C4 22.0697 4.89543 22.6667 6 22.6667Z"/><path d="M8 21.3333C8 20.597 7.10457 20 6 20C4.89543 20 4 20.597 4 21.3333C4 22.0697 4.89543 22.6667 6 22.6667C7.10457 22.6667 8 22.0697 8 21.3333Z"/><g mask="url(#Turkmenistan_svg__d)"><path fill="#DD404F" fill-rule="evenodd" d="M5.99998 22C6.36817 22 6.66665 21.7015 6.66665 21.3333C6.66665 20.9651 6.36817 20.6666 5.99998 20.6666C5.63179 20.6666 5.33331 20.9651 5.33331 21.3333C5.33331 21.7015 5.63179 22 5.99998 22Z"/><path d="M6.66665 21.3333C6.66665 20.9651 6.36817 20.6666 5.99998 20.6666C5.63179 20.6666 5.33331 20.9651 5.33331 21.3333C5.33331 21.7015 5.63179 22 5.99998 22C6.36817 22 6.66665 21.7015 6.66665 21.3333Z"/><path fill="#FBAF29" d="M4 20H6V21.333H4z"/><path d="M4 20H6V21.333H4z"/><path fill="#FBAF29" d="M6 21.333H8V22.665999999999997H6z"/><path d="M6 21.333H8V22.665999999999997H6z"/></g><path fill="#28AE67" fill-rule="evenodd" d="M6 16C7.10457 16 8 15.4031 8 14.6667C8 13.9303 7.10457 13.3334 6 13.3334C4.89543 13.3334 4 13.9303 4 14.6667C4 15.4031 4.89543 16 6 16Z"/><path d="M8 14.6667C8 13.9303 7.10457 13.3334 6 13.3334C4.89543 13.3334 4 13.9303 4 14.6667C4 15.4031 4.89543 16 6 16C7.10457 16 8 15.4031 8 14.6667Z"/><g mask="url(#Turkmenistan_svg__e)"><path fill="#DD404F" fill-rule="evenodd" d="M6.00002 15.3333C6.7364 15.3333 7.33335 15.0349 7.33335 14.6667C7.33335 14.2985 6.7364 14 6.00002 14C5.26364 14 4.66669 14.2985 4.66669 14.6667C4.66669 15.0349 5.26364 15.3333 6.00002 15.3333Z"/><path d="M7.33335 14.6667C7.33335 14.2985 6.7364 14 6.00002 14C5.26364 14 4.66669 14.2985 4.66669 14.6667C4.66669 15.0349 5.26364 15.3333 6.00002 15.3333C6.7364 15.3333 7.33335 15.0349 7.33335 14.6667Z"/></g><path fill="#28AE67" fill-rule="evenodd" d="M6 18.6667C7.10457 18.6667 8 18.3682 8 18C8 17.6319 7.10457 17.3334 6 17.3334C4.89543 17.3334 4 17.6319 4 18C4 18.3682 4.89543 18.6667 6 18.6667Z"/><path d="M8 18C8 17.6319 7.10457 17.3334 6 17.3334C4.89543 17.3334 4 17.6319 4 18C4 18.3682 4.89543 18.6667 6 18.6667C7.10457 18.6667 8 18.3682 8 18Z"/><path fill="#FBAF29" fill-rule="evenodd" d="M6 12C7.10457 12 8 11.4031 8 10.6667C8 9.93033 7.10457 9.33337 6 9.33337C4.89543 9.33337 4 9.93033 4 10.6667C4 11.4031 4.89543 12 6 12Z"/><path d="M8 10.6667C8 9.93033 7.10457 9.33337 6 9.33337C4.89543 9.33337 4 9.93033 4 10.6667C4 11.4031 4.89543 12 6 12C7.10457 12 8 11.4031 8 10.6667Z"/><g mask="url(#Turkmenistan_svg__g)"><path fill="#DD404F" fill-rule="evenodd" d="M5.99998 11.3333C6.36817 11.3333 6.66665 11.0349 6.66665 10.6667C6.66665 10.2985 6.36817 10 5.99998 10C5.63179 10 5.33331 10.2985 5.33331 10.6667C5.33331 11.0349 5.63179 11.3333 5.99998 11.3333Z"/><path d="M6.66665 10.6667C6.66665 10.2985 6.36817 10 5.99998 10C5.63179 10 5.33331 10.2985 5.33331 10.6667C5.33331 11.0349 5.63179 11.3333 5.99998 11.3333C6.36817 11.3333 6.66665 11.0349 6.66665 10.6667Z"/><path fill="#28AE67" d="M4 9.333H5.333V12H4z"/><path d="M4 9.333H5.333V12H4z"/><path fill="#28AE67" d="M6.667 9.333H8V12H6.667z"/><path d="M6.667 9.333H8V12H6.667z"/></g><path fill="#FFF" fill-rule="evenodd" d="M14.4286 6.82261C14.1465 6.58594 13.726 6.62273 13.4893 6.90478C13.2527 7.18683 13.2895 7.60734 13.5715 7.844C13.8536 8.08067 14.2741 8.04388 14.5107 7.76183C14.7474 7.47978 14.7106 7.05928 14.4286 6.82261ZM14.9048 9.17734C14.6228 8.94067 14.586 8.52017 14.8227 8.23812C15.0593 7.95607 15.4798 7.91928 15.7619 8.15594C16.0439 8.39261 16.0807 8.81312 15.8441 9.09517C15.6074 9.37722 15.1869 9.41401 14.9048 9.17734ZM12.8227 8.90478C13.0593 8.62273 13.4798 8.58594 13.7619 8.82261C14.0439 9.05928 14.0807 9.47978 13.8441 9.76183C13.6074 10.0439 13.1869 10.0807 12.9048 9.844C12.6228 9.60734 12.586 9.18683 12.8227 8.90478ZM10.8227 9.57145C11.0593 9.2894 11.4798 9.25261 11.7619 9.48928C12.0439 9.72595 12.0807 10.1465 11.8441 10.4285C11.6074 10.7106 11.1869 10.7473 10.9048 10.5107C10.6228 10.274 10.586 9.8535 10.8227 9.57145ZM13.0952 10.8226C12.8132 10.5859 12.3927 10.6227 12.156 10.9048C11.9193 11.1868 11.9561 11.6073 12.2382 11.844C12.5202 12.0807 12.9407 12.0439 13.1774 11.7618C13.4141 11.4798 13.3773 11.0593 13.0952 10.8226Z"/><path d="M14.4286 6.82261C14.1465 6.58594 13.726 6.62273 13.4893 6.90478C13.2527 7.18683 13.2895 7.60734 13.5715 7.844C13.8536 8.08067 14.2741 8.04388 14.5107 7.76183C14.7474 7.47978 14.7106 7.05928 14.4286 6.82261ZM14.9048 9.17734C14.6228 8.94067 14.586 8.52017 14.8227 8.23812C15.0593 7.95607 15.4798 7.91928 15.7619 8.15594C16.0439 8.39261 16.0807 8.81312 15.8441 9.09517C15.6074 9.37722 15.1869 9.41401 14.9048 9.17734ZM12.8227 8.90478C13.0593 8.62273 13.4798 8.58594 13.7619 8.82261C14.0439 9.05928 14.0807 9.47978 13.8441 9.76183C13.6074 10.0439 13.1869 10.0807 12.9048 9.844C12.6228 9.60734 12.586 9.18683 12.8227 8.90478ZM10.8227 9.57145C11.0593 9.2894 11.4798 9.25261 11.7619 9.48928C12.0439 9.72595 12.0807 10.1465 11.8441 10.4285C11.6074 10.7106 11.1869 10.7473 10.9048 10.5107C10.6228 10.274 10.586 9.8535 10.8227 9.57145ZM13.0952 10.8226C12.8132 10.5859 12.3927 10.6227 12.156 10.9048C11.9193 11.1868 11.9561 11.6073 12.2382 11.844C12.5202 12.0807 12.9407 12.0439 13.1774 11.7618C13.4141 11.4798 13.3773 11.0593 13.0952 10.8226Z"/><path fill="#FFF" fill-rule="evenodd" d="M17.4761 13.4505C15.888 15.0385 13.3133 15.0385 11.7253 13.4505C11.5714 13.2966 11.4324 13.1334 11.3083 12.9628C12.8985 14.1191 15.1374 13.9801 16.5716 12.5459C18.0057 11.1117 18.1447 8.87284 16.9885 7.28271C17.1591 7.40677 17.3222 7.54574 17.4761 7.69962C19.0641 9.28767 19.0641 11.8624 17.4761 13.4505Z"/><path d="M11.7253 13.4505C11.5714 13.2966 11.4324 13.1334 11.3083 12.9628C12.8985 14.1191 15.1374 13.9801 16.5716 12.5459C18.0057 11.1117 18.1447 8.87284 16.9885 7.28271C17.1591 7.40677 17.3222 7.54574 17.4761 7.69962C19.0641 9.28767 19.0641 11.8624 17.4761 13.4505C15.888 15.0385 13.3133 15.0385 11.7253 13.4505Z"/></g></svg>

<svg xmlns="http://www.w3.org/2000/svg" fill="none" viewBox="0 0 28 28" focusable="false"><path fill="none" d="M0 0h28v28H0z"/><rect width="28" height="20" y="4" fill="#FFF" rx="3"/><rect width="28" height="20" y="4" rx="3"/><mask id="Turkmenistan_svg__a" width="28" height="20" x="0" y="4" mask-type="alpha" maskUnits="userSpaceOnUse"><rect width="28" height="20" y="4" fill="#FFF" rx="3"/><rect width="28" height="20" y="4" stroke="#979797" stroke-opacity="0" stroke-width="0" rx="3"/></mask><g mask="url(#Turkmenistan_svg__a)"><path fill="#30C375" fill-rule="evenodd" d="M0 24h28V4H0z"/><path d="M28 24V4H0v20z"/></g><g mask="url(#Turkmenistan_svg__a)"><path fill="#DE414F" d="M4 4h4v20H4z"/><path d="M4 4h4v20H4z"/></g><g mask="url(#Turkmenistan_svg__a)"><path fill="#FFF" fill-rule="evenodd" d="M6 8c1.1 0 2-.6 2-1.34 0-.73-.9-1.33-2-1.33-1.11 0-2 .6-2 1.33C4 7.4 4.89 8 6 8"/><path d="M8 6.66c0-.73-.9-1.33-2-1.33-1.11 0-2 .6-2 1.33C4 7.4 4.89 8 6 8c1.1 0 2-.6 2-1.34"/><mask id="Turkmenistan_svg__b" width="4" height="2.667" x="4" y="5.333" mask-type="alpha" maskUnits="userSpaceOnUse"><path fill="#FFF" fill-rule="evenodd" d="M6 8c1.1 0 2-.6 2-1.34 0-.73-.9-1.33-2-1.33-1.11 0-2 .6-2 1.33C4 7.4 4.89 8 6 8"/><path stroke="#FFF" stroke-opacity="0" stroke-width="0" d="M8 6.66c0-.73-.9-1.33-2-1.33-1.11 0-2 .6-2 1.33C4 7.4 4.89 8 6 8c1.1 0 2-.6 2-1.34Z"/></mask><g mask="url(#Turkmenistan_svg__b)"><path fill="#DD404F" fill-rule="evenodd" d="M5.99 7.33c.37 0 .67-.3.67-.67S6.36 6 5.99 6a.66.66 0 0 0-.66.66c0 .37.3.67.66.67"/><path d="M6.66 6.66c0-.37-.3-.66-.67-.66a.66.66 0 0 0-.66.66c0 .37.3.67.66.67.37 0 .67-.3.67-.67"/></g><g mask="url(#Turkmenistan_svg__b)"><path fill="#FBAF29" d="M4 5.333h2v1.333H4z"/><path d="M4 5.333h2v1.333H4z"/></g><g mask="url(#Turkmenistan_svg__b)"><path fill="#FBAF29" d="M6 6.667h2V8H6z"/><path d="M6 6.667h2V8H6z"/></g></g><g mask="url(#Turkmenistan_svg__a)"><path fill="#FFF" fill-rule="evenodd" d="M6 22.66c1.1 0 2-.6 2-1.33C8 20.59 7.1 20 6 20c-1.11 0-2 .59-2 1.33 0 .73.89 1.33 2 1.33"/><path d="M8 21.33C8 20.59 7.1 20 6 20c-1.11 0-2 .59-2 1.33 0 .73.89 1.33 2 1.33 1.1 0 2-.6 2-1.33"/><mask id="Turkmenistan_svg__c" width="4" height="2.667" x="4" y="20" mask-type="alpha" maskUnits="userSpaceOnUse"><path fill="#FFF" fill-rule="evenodd" d="M6 22.66c1.1 0 2-.6 2-1.33C8 20.59 7.1 20 6 20c-1.11 0-2 .59-2 1.33 0 .73.89 1.33 2 1.33"/><path stroke="#FFF" stroke-opacity="0" stroke-width="0" d="M8 21.33C8 20.59 7.1 20 6 20c-1.11 0-2 .59-2 1.33 0 .73.89 1.33 2 1.33 1.1 0 2-.6 2-1.33Z"/></mask><g mask="url(#Turkmenistan_svg__c)"><path fill="#DD404F" fill-rule="evenodd" d="M5.99 22a.67.67 0 0 0 0-1.34c-.36 0-.66.3-.66.67s.3.67.66.67"/><path d="M6.66 21.33c0-.37-.3-.67-.67-.67-.36 0-.66.3-.66.67s.3.67.66.67c.37 0 .67-.3.67-.67"/></g><g mask="url(#Turkmenistan_svg__c)"><path fill="#FBAF29" d="M4 20h2v1.333H4z"/><path d="M4 20h2v1.333H4z"/></g><g mask="url(#Turkmenistan_svg__c)"><path fill="#FBAF29" d="M6 21.333h2v1.333H6z"/><path d="M6 21.333h2v1.333H6z"/></g></g><g mask="url(#Turkmenistan_svg__a)"><path fill="#28AE67" fill-rule="evenodd" d="M6 16c1.1 0 2-.6 2-1.34 0-.73-.9-1.33-2-1.33-1.11 0-2 .6-2 1.33C4 15.4 4.89 16 6 16"/><path d="M8 14.66c0-.73-.9-1.33-2-1.33-1.11 0-2 .6-2 1.33C4 15.4 4.89 16 6 16c1.1 0 2-.6 2-1.34"/><mask id="Turkmenistan_svg__d" width="4" height="2.667" x="4" y="13.333" mask-type="alpha" maskUnits="userSpaceOnUse"><path fill="#28AE67" fill-rule="evenodd" d="M6 16c1.1 0 2-.6 2-1.34 0-.73-.9-1.33-2-1.33-1.11 0-2 .6-2 1.33C4 15.4 4.89 16 6 16"/><path stroke="#979797" stroke-opacity="0" stroke-width="0" d="M8 14.66c0-.73-.9-1.33-2-1.33-1.11 0-2 .6-2 1.33C4 15.4 4.89 16 6 16c1.1 0 2-.6 2-1.34Z"/></mask><g mask="url(#Turkmenistan_svg__d)"><path fill="#DD404F" fill-rule="evenodd" d="M6 15.33c.73 0 1.33-.3 1.33-.67S6.73 14 6 14c-.74 0-1.34.29-1.34.66s.6.67 1.34.67"/><path d="M7.33 14.66c0-.37-.6-.66-1.33-.66-.74 0-1.34.29-1.34.66s.6.67 1.34.67c.73 0 1.33-.3 1.33-.67"/></g></g><g mask="url(#Turkmenistan_svg__a)"><path fill="#28AE67" fill-rule="evenodd" d="M6 18.66c1.1 0 2-.3 2-.66 0-.37-.9-.67-2-.67-1.11 0-2 .3-2 .67 0 .36.89.66 2 .66"/><path d="M8 18c0-.37-.9-.67-2-.67-1.11 0-2 .3-2 .67 0 .36.89.66 2 .66 1.1 0 2-.3 2-.66"/></g><g mask="url(#Turkmenistan_svg__a)"><path fill="#FBAF29" fill-rule="evenodd" d="M6 12c1.1 0 2-.6 2-1.34 0-.73-.9-1.33-2-1.33-1.11 0-2 .6-2 1.33C4 11.4 4.89 12 6 12"/><path d="M8 10.66c0-.73-.9-1.33-2-1.33-1.11 0-2 .6-2 1.33C4 11.4 4.89 12 6 12c1.1 0 2-.6 2-1.34"/><mask id="Turkmenistan_svg__e" width="4" height="2.667" x="4" y="9.333" mask-type="alpha" maskUnits="userSpaceOnUse"><path fill="#FBAF29" fill-rule="evenodd" d="M6 12c1.1 0 2-.6 2-1.34 0-.73-.9-1.33-2-1.33-1.11 0-2 .6-2 1.33C4 11.4 4.89 12 6 12"/><path stroke="#979797" stroke-opacity="0" stroke-width="0" d="M8 10.66c0-.73-.9-1.33-2-1.33-1.11 0-2 .6-2 1.33C4 11.4 4.89 12 6 12c1.1 0 2-.6 2-1.34Z"/></mask><g mask="url(#Turkmenistan_svg__e)"><path fill="#DD404F" fill-rule="evenodd" d="M5.99 11.33c.37 0 .67-.3.67-.67s-.3-.66-.67-.66a.66.66 0 0 0-.66.66c0 .37.3.67.66.67"/><path d="M6.66 10.66c0-.37-.3-.66-.67-.66a.66.66 0 0 0-.66.66c0 .37.3.67.66.67.37 0 .67-.3.67-.67"/></g><g mask="url(#Turkmenistan_svg__e)"><path fill="#28AE67" d="M4 9.333h1.333V12H4z"/><path d="M4 9.333h1.333V12H4z"/></g><g mask="url(#Turkmenistan_svg__e)"><path fill="#28AE67" d="M6.667 9.333H8V12H6.667z"/><path d="M6.667 9.333H8V12H6.667z"/></g></g><g mask="url(#Turkmenistan_svg__a)"><mask id="Turkmenistan_svg__f" fill="#fff"><path fill-rule="evenodd" d="M14.429 6.823a.667.667 0 1 0-.858 1.021.667.667 0 0 0 .858-1.021m.476 2.354a.667.667 0 1 1 .857-1.021.667.667 0 0 1-.857 1.021m-2.082-.272a.667.667 0 1 1 1.021.857.667.667 0 0 1-1.021-.857m-2 .666a.667.667 0 1 1 1.021.857.667.667 0 0 1-1.021-.857m2.272 1.252a.667.667 0 1 0-.857 1.02.667.667 0 0 0 .857-1.02" clip-rule="evenodd"/></mask><path fill="#FFF" fill-rule="evenodd" d="M14.429 6.823a.667.667 0 1 0-.858 1.021.667.667 0 0 0 .858-1.021m.476 2.354a.667.667 0 1 1 .857-1.021.667.667 0 0 1-.857 1.021m-2.082-.272a.667.667 0 1 1 1.021.857.667.667 0 0 1-1.021-.857m-2 .666a.667.667 0 1 1 1.021.857.667.667 0 0 1-1.021-.857m2.272 1.252a.667.667 0 1 0-.857 1.02.667.667 0 0 0 .857-1.02" clip-rule="evenodd" mask="url(#Turkmenistan_svg__f)"/></g><g mask="url(#Turkmenistan_svg__a)"><path fill="#FFF" fill-rule="evenodd" d="M17.47 13.45a4.08 4.08 0 0 1-5.75 0c-.15-.16-.29-.32-.42-.49a4.08 4.08 0 0 0 5.27-.42 4.06 4.06 0 0 0 .41-5.26c.17.12.34.26.49.41a4.074 4.074 0 0 1 0 5.76"/><path d="M11.72 13.45c-.15-.16-.29-.32-.42-.49a4.08 4.08 0 0 0 5.27-.42 4.06 4.06 0 0 0 .41-5.26c.17.12.34.26.49.41a4.074 4.074 0 0 1 0 5.76 4.08 4.08 0 0 1-5.75 0"/></g></svg>
